source/images/burger.svg

<svg width="16.000000" height="12.000000" viewBox="0 0 16 12" fill="none" xmlns="http://www.w3.org/2000/svg" xmlns:xlink="http://www.w3.org/1999/xlink">
	<desc>
			Created with Pixso.
	</desc>
	<defs/>
	<path id="Menu" d="M0 0L16 0L16 1.5L0 1.5L0 0ZM0 5.25L16 5.25L16 6.75L0 6.75L0 5.25ZM16 10.5L0 10.5L0 12L16 12L16 10.5Z" clip-rule="evenodd" fill="#333333" fill-opacity="1.000000" fill-rule="evenodd"/>
</svg>

<svg viewBox="0 0 16 12" fill="none" xmlns="http://www.w3.org/2000/svg"><path d="M0 0h16v1.5h-16v-1.5Zm0 5.25h16v1.5h-16v-1.5Zm16 5.25h-16v1.5h16v-1.5Z" clip-rule="evenodd" fill="#333" fill-rule="evenodd"/></svg>
